X:13
T:Wounded Hussar. Le4.013, The
B:L.Leadley MS#4 c1850
Z:Village Music Project, 2016 Steve Mansfield
M:6/8
L:1/8
Q:3/8=70
K:Am
AGF AAB | cBA Bcd | cBA GAB | ceg edc |
BAG EAA | A2 :: ABA eee | dcB ddd |
cBA aga | bc'g aga | abc' bag | ege dBg |
GAB ceg | e/d/c/ B/A/G/ EAA | A2 :|

